src/components/HostingOption/images/hosting-azure.svg

<svg width="17" height="16" viewBox="0 0 17 16" fill="none" xmlns="http://www.w3.org/2000/svg">
<path d="M0.686951 2.20162L7.2483 1.29971V7.6312H0.687555L0.686951 2.20162ZM7.2483 8.44144V14.7014L0.687857 13.8008L0.687706 8.44174H7.24846V8.44144H7.2483ZM7.97382 1.20018L16.7045 0V7.6312H7.97382V1.20018ZM16.7045 8.44144V16L7.97382 14.8007V8.44144H16.7045Z" fill="white"/>
</svg>

<svg fill="none" viewBox="0 0 17 16"><path fill="#fff" d="M.687 2.202L7.248 1.3v6.33H.688L.687 2.2zm6.561 6.24v6.26L.688 13.8V8.44h6.56zM7.974 1.2l8.73-1.2v7.631h-8.73v-6.43zm8.73 7.241V16l-8.73-1.2V8.442h8.73z"/></svg>
